X: 602
T: MONEY MUSK
B: Oliver Ditson "The Boston Collection of Instrumental Music" 1910 p.60 #2
F: http://conquest.imslp.info/files/imglnks/usimg/8/8f/IMSLP175643-PMLP309456-bostoncollection00bost_bw.pdf
M: 2/2
L: 1/8
K: A
f |\
eAcA eAdf | eAcA Bcdf | eAcA ceea | fdBe cAAf |\
eAcA eAdf | eAcA Bcdf | eAcA cdea | fdBe cAA :|
|: a |\
aefa eaca | aeda caBa | aefa eaca | fdBe cAAa |\
aefa eaca | aeda caBa | aefa eafa | caBa caa :|

%%sep 1 1 500
%%sep 1 1 500
